static/img/in-field/inputs-default.svg

<svg width="469" height="57" viewBox="0 0 469 57" fill="none" xmlns="http://www.w3.org/2000/svg">
<rect x="1.5" y="1.3335" width="466" height="54" rx="3" fill="white"/>
<path d="M23.4717 37.3335H21.6348V23.2397H16.6934V21.6284H28.3916V23.2397H23.4717V37.3335ZM35.2803 25.3452C36.2829 25.3452 37.1423 25.5672 37.8584 26.0112C38.5745 26.4552 39.1224 27.0783 39.502 27.8804C39.8815 28.6753 40.0713 29.6063 40.0713 30.6733V31.7798H31.9395C31.9609 33.1619 32.3047 34.2147 32.9707 34.938C33.6367 35.6613 34.5749 36.0229 35.7852 36.0229C36.5299 36.0229 37.1888 35.9549 37.7617 35.8188C38.3346 35.6828 38.929 35.4823 39.5449 35.2173V36.7856C38.9505 37.0506 38.3597 37.244 37.7725 37.3657C37.1924 37.4875 36.5049 37.5483 35.71 37.5483C34.5785 37.5483 33.5902 37.3192 32.7451 36.8608C31.9072 36.3953 31.2555 35.715 30.79 34.8198C30.3245 33.9246 30.0918 32.8289 30.0918 31.5327C30.0918 30.2651 30.3031 29.1694 30.7256 28.2456C31.1553 27.3146 31.7568 26.5985 32.5303 26.0972C33.3109 25.5959 34.2275 25.3452 35.2803 25.3452ZM35.2588 26.8062C34.3063 26.8062 33.5472 27.1177 32.9814 27.7407C32.4157 28.3638 32.0791 29.2339 31.9717 30.3511H38.2021C38.195 29.6493 38.084 29.0334 37.8691 28.5034C37.6615 27.9663 37.3428 27.5509 36.9131 27.2573C36.4834 26.9565 35.932 26.8062 35.2588 26.8062ZM46.1543 31.3071L42.083 25.5601H44.124L47.2285 30.0933L50.3223 25.5601H52.3418L48.2705 31.3071L52.5674 37.3335H50.5264L47.2285 32.5317L43.9092 37.3335H41.8896L46.1543 31.3071ZM58.9189 36.0874C59.2126 36.0874 59.5133 36.0623 59.8213 36.0122C60.1292 35.9621 60.3799 35.9012 60.5732 35.8296V37.2153C60.3656 37.3084 60.0755 37.3872 59.7031 37.4517C59.3379 37.5161 58.9798 37.5483 58.6289 37.5483C58.0059 37.5483 57.4401 37.4409 56.9316 37.2261C56.4232 37.0041 56.015 36.6317 55.707 36.1089C55.4062 35.5861 55.2559 34.8628 55.2559 33.939V26.9565H53.5801V26.0864L55.2666 25.3882L55.9756 22.8315H57.0498V25.5601H60.498V26.9565H57.0498V33.8853C57.0498 34.6229 57.2181 35.1743 57.5547 35.5396C57.8984 35.9048 58.3532 36.0874 58.9189 36.0874ZM69.4414 37.3335V21.6284H71.2676V37.3335H69.4414ZM81.1426 25.3452C82.5391 25.3452 83.5954 25.689 84.3115 26.3765C85.0277 27.0568 85.3857 28.1525 85.3857 29.6636V37.3335H83.624V29.7817C83.624 28.8006 83.3984 28.0666 82.9473 27.5796C82.5033 27.0926 81.8193 26.8491 80.8955 26.8491C79.5921 26.8491 78.6755 27.2179 78.1455 27.9556C77.6156 28.6932 77.3506 29.7638 77.3506 31.1675V37.3335H75.5674V25.5601H77.0068L77.2754 27.2573H77.3721C77.6227 26.842 77.9414 26.4946 78.3281 26.2153C78.7148 25.9289 79.1481 25.714 79.6279 25.5708C80.1077 25.4204 80.6126 25.3452 81.1426 25.3452ZM94.8418 25.3452C96.3099 25.3452 97.4808 25.8501 98.3545 26.8599C99.2282 27.8696 99.665 29.3879 99.665 31.4146C99.665 32.7537 99.4645 33.8781 99.0635 34.7876C98.6624 35.6971 98.0967 36.3846 97.3662 36.8501C96.6429 37.3156 95.7871 37.5483 94.7988 37.5483C94.1758 37.5483 93.6279 37.466 93.1553 37.3013C92.6826 37.1366 92.278 36.9146 91.9414 36.6353C91.6048 36.356 91.3255 36.0516 91.1035 35.7222H90.9746C90.9961 36.0015 91.0212 36.3381 91.0498 36.7319C91.0856 37.1258 91.1035 37.4696 91.1035 37.7632V42.5972H89.3096V25.5601H90.7812L91.0176 27.3003H91.1035C91.3327 26.9422 91.612 26.6164 91.9414 26.3228C92.2708 26.022 92.6719 25.7856 93.1445 25.6138C93.6243 25.4347 94.1901 25.3452 94.8418 25.3452ZM94.5303 26.8491C93.7139 26.8491 93.055 27.0067 92.5537 27.3218C92.0596 27.6369 91.6979 28.1095 91.4688 28.7397C91.2396 29.3628 91.1178 30.147 91.1035 31.0923V31.436C91.1035 32.4315 91.2109 33.2729 91.4258 33.9604C91.6478 34.6479 92.0094 35.1707 92.5107 35.5288C93.0192 35.8869 93.6995 36.0659 94.5518 36.0659C95.2822 36.0659 95.891 35.869 96.3779 35.4751C96.8649 35.0812 97.2266 34.5334 97.4629 33.8315C97.7064 33.1226 97.8281 32.3097 97.8281 31.3931C97.8281 30.0037 97.556 28.9009 97.0117 28.0845C96.4746 27.2609 95.6475 26.8491 94.5303 26.8491ZM112.752 25.5601V37.3335H111.291L111.033 35.6792H110.937C110.693 36.0874 110.378 36.4312 109.991 36.7104C109.604 36.9897 109.168 37.1974 108.681 37.3335C108.201 37.4767 107.689 37.5483 107.145 37.5483C106.214 37.5483 105.433 37.3979 104.803 37.0972C104.173 36.7964 103.696 36.3309 103.374 35.7007C103.059 35.0705 102.901 34.2612 102.901 33.2729V25.5601H104.706V33.144C104.706 34.1252 104.928 34.8592 105.372 35.3462C105.816 35.826 106.493 36.0659 107.402 36.0659C108.276 36.0659 108.971 35.9012 109.486 35.5718C110.009 35.2424 110.385 34.759 110.614 34.1216C110.843 33.4771 110.958 32.6893 110.958 31.7583V25.5601H112.752ZM120.575 36.0874C120.869 36.0874 121.17 36.0623 121.478 36.0122C121.785 35.9621 122.036 35.9012 122.229 35.8296V37.2153C122.022 37.3084 121.732 37.3872 121.359 37.4517C120.994 37.5161 120.636 37.5483 120.285 37.5483C119.662 37.5483 119.096 37.4409 118.588 37.2261C118.079 37.0041 117.671 36.6317 117.363 36.1089C117.062 35.5861 116.912 34.8628 116.912 33.939V26.9565H115.236V26.0864L116.923 25.3882L117.632 22.8315H118.706V25.5601H122.154V26.9565H118.706V33.8853C118.706 34.6229 118.874 35.1743 119.211 35.5396C119.555 35.9048 120.009 36.0874 120.575 36.0874Z" fill="#90939F"/>
<rect x="1.5" y="1.3335" width="466" height="54" rx="3" stroke="#353A40" stroke-width="2"/>
</svg>

<svg width="469" height="57" fill="none" xmlns="http://www.w3.org/2000/svg"><rect x="1.5" y="1.333" width="466" height="54" rx="3" fill="#fff"/><path d="M23.472 37.334h-1.837V23.24h-4.942v-1.612h11.699v1.612h-4.92v14.094zM35.28 25.345c1.003 0 1.862.222 2.578.666.717.444 1.264 1.067 1.644 1.87.38.794.57 1.725.57 2.792v1.107h-8.133c.022 1.382.366 2.435 1.032 3.158.666.723 1.604 1.085 2.814 1.085.745 0 1.404-.068 1.977-.204a10.89 10.89 0 001.783-.602v1.569a8.676 8.676 0 01-1.773.58c-.58.121-1.267.182-2.062.182-1.132 0-2.12-.229-2.965-.687-.838-.466-1.49-1.146-1.955-2.041-.465-.895-.698-1.991-.698-3.287 0-1.268.211-2.364.634-3.287.43-.931 1.03-1.647 1.804-2.149.78-.501 1.697-.752 2.75-.752zm-.021 1.461c-.953 0-1.712.312-2.278.935-.565.623-.902 1.493-1.01 2.61h6.231c-.007-.702-.118-1.318-.333-1.848-.208-.537-.526-.952-.956-1.246-.43-.3-.981-.45-1.654-.45zm10.895 4.501l-4.071-5.747h2.041l3.104 4.533 3.094-4.533h2.02l-4.072 5.747 4.297 6.027h-2.04l-3.299-4.802-3.319 4.802h-2.02l4.265-6.027zm12.765 4.78c.294 0 .594-.025.902-.075.308-.05.559-.11.752-.182v1.385c-.207.093-.498.172-.87.237a6.179 6.179 0 01-1.074.096 4.32 4.32 0 01-1.697-.322c-.509-.222-.917-.594-1.225-1.117-.3-.523-.451-1.246-.451-2.17v-6.983H53.58v-.87l1.687-.698.709-2.557h1.074v2.73h3.448v1.395H57.05v6.93c0 .737.168 1.288.505 1.654.343.365.798.547 1.364.547zm10.522 1.246V21.629h1.827v15.706H69.44zm11.702-11.988c1.396 0 2.452.344 3.168 1.032.717.68 1.075 1.776 1.075 3.287v7.67h-1.762v-7.552c0-.981-.226-1.715-.677-2.202-.444-.487-1.128-.73-2.052-.73-1.303 0-2.22.368-2.75 1.106-.53.737-.794 1.808-.794 3.212v6.166h-1.784V25.56h1.44l.268 1.697h.097c.25-.415.57-.762.956-1.042.387-.286.82-.501 1.3-.644.48-.15.985-.226 1.515-.226zm13.699 0c1.468 0 2.639.505 3.513 1.515.873 1.01 1.31 2.528 1.31 4.555 0 1.339-.2 2.463-.602 3.373-.4.91-.966 1.597-1.697 2.062-.723.466-1.579.698-2.567.698-.623 0-1.171-.082-1.644-.247a3.878 3.878 0 01-1.214-.666 4.347 4.347 0 01-.838-.913h-.128l.075 1.01c.036.394.053.738.053 1.031v4.834H89.31V25.56h1.471l.237 1.74h.085c.23-.358.509-.684.838-.977.33-.301.73-.537 1.203-.71.48-.178 1.046-.268 1.698-.268zm-.312 1.504c-.816 0-1.475.158-1.976.473-.494.315-.856.788-1.085 1.418-.23.623-.351 1.407-.365 2.352v.344c0 .995.107 1.837.322 2.524.222.688.583 1.21 1.085 1.569.508.358 1.189.537 2.04.537.731 0 1.34-.197 1.827-.59.487-.395.849-.943 1.085-1.645.243-.708.365-1.521.365-2.438 0-1.39-.272-2.492-.816-3.309-.537-.823-1.365-1.235-2.482-1.235zm18.222-1.289v11.774h-1.461l-.258-1.655h-.096a3.426 3.426 0 01-.946 1.031c-.387.28-.823.487-1.31.623-.48.144-.992.215-1.536.215-.931 0-1.712-.15-2.342-.45a3.036 3.036 0 01-1.429-1.397c-.315-.63-.473-1.44-.473-2.428V25.56h1.805v7.584c0 .981.222 1.715.666 2.202.444.48 1.121.72 2.03.72.874 0 1.569-.165 2.084-.494.523-.33.899-.813 1.128-1.45.229-.645.344-1.433.344-2.364V25.56h1.794zm7.823 10.527c.294 0 .595-.025.903-.075.307-.05.558-.11.751-.182v1.385c-.207.093-.497.172-.87.237a6.174 6.174 0 01-1.074.096 4.317 4.317 0 01-1.697-.322c-.509-.222-.917-.594-1.225-1.117-.301-.523-.451-1.246-.451-2.17v-6.983h-1.676v-.87l1.687-.698.709-2.557h1.074v2.73h3.448v1.395h-3.448v6.93c0 .737.168 1.288.505 1.654.344.365.798.547 1.364.547z" fill="#90939F"/><rect x="1.5" y="1.333" width="466" height="54" rx="3" stroke="#353A40" stroke-width="2"/></svg>
